Suru++-Ubuntu/apps/symbolic/emoji-objects-symbolic.svg

<svg width="16" height="16" version="1.1" xmlns="http://www.w3.org/2000/svg">
 <path d="m8.5097656 0a5.5 5.041667 0 0 0-3.5449218 1.1796875 5.5 5.041667 0 0 0-1.2285157 6.3828125c0.766958 1.0495783 2.2636719 2.0801619 2.2636719 3.4375h0.0039062c1e-7 0-0.0015642 1.08229-0.0019531 2v1c-2.148e-4 0.379583 2.062e-4 0.787343 0 0.947266-0.038755 0.532716 0.4134878 1.036558 0.9492188 1.048828 0.999581 3e-3 1.9984318 0.001092 2.9980469 0.001953 0.5327562 0.038752 1.0365582-0.411573 1.0488282-0.947266 3e-3 -0.666367 0.001093-3.38438 0.001953-4.050781 0-1.3573381 1.496714-2.3879217 2.263672-3.4375a5.5 5.041667 0 0 0-1.228516-6.3828125 5.5 5.041667 0 0 0-3.5253904-1.1796875zm-0.0097656 0.91601562a4.5 4.1250002 0 0 1 4.5 4.125 4.5 4.1250002 0 0 1-0.662109 2.1367188c-0.510906 0.7716691-2.3891321 2.2575261-2.337891 3.8222656h-3c0.051804-1.5819279-1.8777392-3.0894357-2.3632812-3.8535156a4.5 4.1250002 0 0 1-0.6367188-2.1054688 4.5 4.1250002 0 0 1 4.5-4.125zm-1.5058594 4.5859375c-0.1279612 1e-7 -0.2558846 0.0488535-0.3535156 0.1464844-0.195262 0.1952619-0.195262 0.5117692 0 0.7070313 0.182793 0.1827931 1.08386 0.8049136 1.359375 0.7246093v2.9199219h1v-2.9179688c0.2876278 0.0617048 1.167174-0.5460803 1.347656-0.7265624 0.195262-0.1952621 0.195262-0.5117694 0-0.7070313-0.195262-0.1952618-0.51177-0.1952621-0.707031 0-0.1812801 0.1812803-0.7945976 1.0680244-0.7265625 1.3515625h-0.8398437c0.0686029-0.2831701-0.5452116-1.1702113-0.7265626-1.3515625-0.0976309-0.0976311-0.2255543-0.1464844-0.3535156-0.1464844zm0.0058594 6.4980469h3v3h-3v-1h1.5019531v-1h-1.5019531v-1z" fill="#808080"/>
</svg>

<svg xmlns="http://www.w3.org/2000/svg" width="16" height="16" version="1.1">
 <path d="M 8.5097656 0 A 5.5 5.041667 0 0 0 4.9648438 1.1796875 A 5.5 5.041667 0 0 0 3.7363281 7.5625 C 4.5032861 8.6120783 6 9.6426619 6 11 L 6.0039062 11 C 6.0039063 11 6.002342 12.08229 6.0019531 13 L 6.0019531 14 C 6.0017383 14.379583 6.0021593 14.787343 6.0019531 14.947266 C 5.9631981 15.479982 6.4154409 15.983824 6.9511719 15.996094 C 7.9507529 15.999094 8.9496037 15.997186 9.9492188 15.998047 C 10.481975 16.036799 10.985777 15.586474 10.998047 15.050781 C 11.001047 14.384414 10.99914 11.666401 11 11 C 11 9.6426619 12.496714 8.6120783 13.263672 7.5625 A 5.5 5.041667 0 0 0 12.035156 1.1796875 A 5.5 5.041667 0 0 0 8.5097656 0 z M 8.5 0.91601562 A 4.5 4.1250002 0 0 1 13 5.0410156 A 4.5 4.1250002 0 0 1 12.337891 7.1777344 C 11.826985 7.9494035 9.9487589 9.4352605 10 11 L 7 11 C 7.051804 9.4180721 5.1222608 7.9105643 4.6367188 7.1464844 A 4.5 4.1250002 0 0 1 4 5.0410156 A 4.5 4.1250002 0 0 1 8.5 0.91601562 z M 6.9941406 5.5019531 C 6.8661794 5.5019532 6.738256 5.5508066 6.640625 5.6484375 C 6.445363 5.8436994 6.445363 6.1602067 6.640625 6.3554688 C 6.823418 6.5382619 7.724485 7.1603824 8 7.0800781 L 8 10 L 9 10 L 9 7.0820312 C 9.2876278 7.143736 10.167174 6.5359509 10.347656 6.3554688 C 10.542918 6.1602067 10.542918 5.8436994 10.347656 5.6484375 C 10.152394 5.4531757 9.835886 5.4531754 9.640625 5.6484375 C 9.4593449 5.8297178 8.8460274 6.7164619 8.9140625 7 L 8.0742188 7 C 8.1428217 6.7168299 7.5290072 5.8297887 7.3476562 5.6484375 C 7.2500253 5.5508064 7.1221019 5.5019531 6.9941406 5.5019531 z M 7 12 L 10 12 L 10 15 L 7 15 L 7 14 L 8.5019531 14 L 8.5019531 13 L 7 13 L 7 12 z" fill="#808080"/>
</svg>
